X: 27578
T: Monroe Gardener, The
R: hornpipe
M: 4/4
K: Gmajor
(3DEF|:G4 (3FAG (3ABd|g2 ddcd (3edb|GA^GB ABcd|a2 gfed (3d^c=c|
A G3 FAGA|Bdgd dcde|dBGA afdc|adfa ggfg:|
g3d gBcd|edBG DGBd|cafd cafa|gbag fgdb|
cd g2 dgBc|dedb gdgb|cafd cADF|A4 GGFG:|

